X: 11
T: SHEPTON HORNPIPE
S: "Community Dances Manual 5", EFDSS, Michael Bell ed., 1957 p.13
R: reel
Z: 2010 John Chambers <jc:trillian.mit.edu>
M: 2/2
L: 1/8
K: G
"A"|: "G"GABc d2dB | "C"c2e2 "D"d3B |\
"G"GABc d2dB | "C"c2e2 "D"A4 | "G"GABc d2dB |
"C"c2e2 "G(Bm)"d3B | "Em"GABc "D7"d2dc | "G"B2G2 G4 "B"::\
"G"g2g2 gagf | "C"e2c2 cdcB | "Am"A2a2 abag |
"D"f2d2 d2ef | "G(Em)"gagf "C"e2ag | "D"fgfe d2ef |\
"G"g2BB "D7"cedc | "G"B2G2 G2 :|


%%sep 5 1 500

%%sep 1 1 500

